packages/ffe-icons/icons/open/400/sm/view_headline.svg

<svg xmlns="http://www.w3.org/2000/svg" height="20" viewBox="0 -960 960 960" width="20"><path d="M227.294-376Q212-376 202-386.289q-10-10.29-10-25.5Q192-427 202.346-437.5q10.347-10.5 25.641-10.5h504.719Q748-448 758-437.711q10 10.29 10 25.5Q768-397 757.654-386.5 747.307-376 732.013-376H227.294Zm0 136Q212-240 202-250.289q-10-10.29-10-25.5Q192-291 202.346-301.5q10.347-10.5 25.641-10.5h504.719Q748-312 758-301.711q10 10.29 10 25.5Q768-261 757.654-250.5 747.307-240 732.013-240H227.294Zm0-272Q212-512 202-522.289q-10-10.29-10-25.5Q192-563 202.346-573.5q10.347-10.5 25.641-10.5h504.719Q748-584 758-573.711q10 10.29 10 25.5Q768-533 757.654-522.5 747.307-512 732.013-512H227.294Zm0-136Q212-648 202-658.289q-10-10.29-10-25.5Q192-699 202.346-709.5q10.347-10.5 25.641-10.5h504.719Q748-720 758-709.711q10 10.29 10 25.5Q768-669 757.654-658.5 747.307-648 732.013-648H227.294Z"/></svg>

<svg xmlns="http://www.w3.org/2000/svg" height="20" viewBox="0 -960 960 960" width="20"><path d="M227.29-376Q212-376 202-386.29t-10-25.5q0-15.21 10.35-25.71 10.34-10.5 25.64-10.5h504.72Q748-448 758-437.71t10 25.5q0 15.21-10.35 25.71-10.34 10.5-25.64 10.5H227.29Zm0 136Q212-240 202-250.29t-10-25.5q0-15.21 10.35-25.71 10.34-10.5 25.64-10.5h504.72Q748-312 758-301.71t10 25.5q0 15.21-10.35 25.71-10.34 10.5-25.64 10.5H227.29Zm0-272Q212-512 202-522.29t-10-25.5q0-15.21 10.35-25.71 10.34-10.5 25.64-10.5h504.72Q748-584 758-573.71t10 25.5q0 15.21-10.35 25.71-10.34 10.5-25.64 10.5H227.29Zm0-136Q212-648 202-658.29t-10-25.5q0-15.21 10.35-25.71 10.34-10.5 25.64-10.5h504.72Q748-720 758-709.71t10 25.5q0 15.21-10.35 25.71-10.34 10.5-25.64 10.5H227.29Z"/></svg>
